X: 35620
T: Saffron Kilt, The
R: waltz
M: 3/4
K: Gmajor
dc|B2 G3A|B2 d2 G2|c2 e2 g2|d4 de|
d2 A3B|c2 d3c|B6|B4 dc|
B2 G3A|B2 d2 G2|c2 e2 g2|d4 de|
d2 A3B|c2 B2 A2|G6|G4 dc||
B2 d2 G2|c6|e2 g2 B2|d4 de|
d2 A3B|c2 d3c|B6|B4 dc|
B2 d2 G2|c6|e2 g2 B2|d4 de|
d2 A3B|c2 B2 A2|G6|G4||

